svg/fluentui-system-icons/ic_fluent_autocorrect_24_filled.svg

<svg width="24" height="24" viewBox="0 0 24 24" fill="none" xmlns="http://www.w3.org/2000/svg">
<path d="M13.594 4.7225C13.9773 4.96289 14.3013 5.28687 14.5417 5.6702C15.6565 7.44786 16.614 8.97468 17.4142 10.2507L21.5001 10.2496C22.0524 10.2496 22.5001 10.6974 22.5001 11.2496C22.5001 11.8019 22.0524 12.2496 21.5001 12.2496L18.7496 12.2484C19.3778 13.0843 19.7501 14.1235 19.7501 15.2496C19.7501 18.0111 17.5116 20.2496 14.7501 20.2496C11.9887 20.2496 9.75013 18.0111 9.75013 15.2496C9.75013 12.4882 11.9887 10.2496 14.7501 10.2496L15.053 10.2487L14.7693 9.79664C14.1801 8.85795 13.5393 7.83621 12.8473 6.73278C12.7672 6.605 12.6592 6.49701 12.5314 6.41688C12.097 6.14441 11.5338 6.2469 11.2206 6.63755L11.1529 6.73278L3.59732 18.7809C3.3039 19.2488 2.68673 19.3903 2.21884 19.0968C1.78437 18.8244 1.63139 18.2728 1.84668 17.8207L1.90294 17.7184L9.45856 5.6702C10.3388 4.26653 12.1903 3.84223 13.594 4.7225ZM14.7501 12.2496C13.0933 12.2496 11.7501 13.5928 11.7501 15.2496C11.7501 16.9065 13.0933 18.2496 14.7501 18.2496C16.407 18.2496 17.7501 16.9065 17.7501 15.2496C17.7501 13.5928 16.407 12.2496 14.7501 12.2496Z" fill="#212121"/>
</svg>

<svg xmlns="http://www.w3.org/2000/svg" width="24" height="24"><path d="M13.594 4.723a3 3 0 0 1 .948.947l2.872 4.58H21.5a1 1 0 0 1 0 2l-2.75-.002a5 5 0 1 1-4-1.999h.303l-.284-.452-1.922-3.064a1 1 0 0 0-1.626-.095l-.068.095L3.597 18.78a1 1 0 0 1-1.75-.96l.056-.103L9.459 5.67a3 3 0 0 1 4.135-.947Zm1.156 7.527a3 3 0 1 0 0 6 3 3 0 0 0 0-6Z"/></svg>
